X:1022
T:Baille de Panderu (CT 472)
R:Panderu
C:Tradicional
S:Música Tradicional Asturiana, (C) Tello & Tito. Asturies, 2001.
S:http://pagina.de/MusTradAst <telloytito@asturies.org>
N:Canción de baile de pandero, dictada por Manuela y Josefa Martínez Martínez, de ochenta y ochenta y dos años respectivamente, de Llanuces, ayuntamiento de Quirós.
O:Llanuces (Quirós)
A:Asturies
Z:Cancioneru de Torner 472
M:6/8
L:1/8
Q:3/8=88
W:Quisiera que me dixeras,
W:dientro de mui pocu tiempu
W:que llugar ye'l qu'ocupa
W:mio corazón nel to pechu. ¡Ai amor!
K:C
|Gcc cBA|B2G- G3|Gcc cBA|
B2G- G2z|_eee edc|d2_B- B3|
Gcc c=BA|B2G- GAF|G6-|G2 z4||


